X: 31374
T: Paddy O'Rafferty
R: jig
M: 6/8
K: Dmajor
f3 efe|def gfe|f3 efe|d2e dBA|
f3 efe|def g2^g|age gfe|dfe dBA:|
|:A3B3|gfe fdB|A3B3|efe dBA|
A3B3|efe efg|age gfe|dfe dBA:|

